assets/Sos button/Flat/sos_button_flat.svg

<svg width="32" height="32" viewBox="0 0 32 32" fill="none" xmlns="http://www.w3.org/2000/svg">
<path d="M2 6C2 3.79086 3.79086 2 6 2H26C28.2091 2 30 3.79086 30 6V26C30 28.2091 28.2091 30 26 30H6C3.79086 30 2 28.2091 2 26V6Z" fill="#F92F60"/>
<path d="M12.4219 14.1797C12.4219 12.1949 14.0309 10.5859 16.0157 10.5859C18.0004 10.5859 19.6094 12.1949 19.6094 14.1797V17.8047C19.6094 19.7895 18.0004 21.3984 16.0157 21.3984C14.0309 21.3984 12.4219 19.7895 12.4219 17.8047V14.1797ZM16.0157 12.5859C15.1355 12.5859 14.4219 13.2995 14.4219 14.1797V17.8047C14.4219 18.6849 15.1355 19.3984 16.0157 19.3984C16.8959 19.3984 17.6094 18.6849 17.6094 17.8047V14.1797C17.6094 13.2995 16.8959 12.5859 16.0157 12.5859Z" fill="white"/>
<path d="M4.75059 13.6544C4.80222 12.0951 6.26416 10.7188 8.0313 10.7188C8.77237 10.7188 9.45794 10.9841 9.97209 11.2582C10.4939 11.5364 10.9274 11.8711 11.1878 12.1178C11.5887 12.4976 11.6058 13.1306 11.226 13.5315C10.8462 13.9324 10.2132 13.9495 9.8123 13.5697C9.67686 13.4414 9.3885 13.2136 9.03113 13.023C8.66611 12.8284 8.31522 12.7188 8.0313 12.7188C7.23593 12.7188 6.76199 13.3434 6.7495 13.7206C6.74179 13.9534 6.81736 14.1494 7.08604 14.373C7.39325 14.6287 7.91733 14.8801 8.70519 15.099C9.82169 15.4091 10.701 16.0027 11.1566 16.8665C11.6226 17.7502 11.5481 18.7348 11.1063 19.5858C10.6885 20.3905 9.8751 21.0876 8.73583 21.2307C7.60869 21.3723 6.34219 20.9516 5.0104 19.9138C4.57475 19.5743 4.49678 18.946 4.83625 18.5104C5.17571 18.0747 5.80405 17.9967 6.23969 18.3362C7.31415 19.1734 8.0604 19.2999 8.48651 19.2463C8.9005 19.1943 9.18089 18.9539 9.3313 18.6642C9.52226 18.2964 9.49929 18.0115 9.38747 17.7994C9.26521 17.5676 8.93754 17.2393 8.1699 17.026C7.27026 16.7761 6.43106 16.4299 5.80663 15.9102C5.14366 15.3584 4.71924 14.6013 4.75059 13.6544Z" fill="white"/>
<path d="M23.9377 10.7188C22.1705 10.7188 20.7086 12.0951 20.657 13.6544C20.6256 14.6013 21.05 15.3584 21.713 15.9102C22.3374 16.4299 23.1766 16.7761 24.0763 17.026C24.8439 17.2393 25.1716 17.5676 25.2938 17.7994C25.4057 18.0115 25.4286 18.2964 25.2377 18.6642C25.0873 18.9539 24.8069 19.1943 24.3929 19.2463C23.9668 19.2999 23.2205 19.1734 22.1461 18.3362C21.7104 17.9967 21.0821 18.0747 20.7426 18.5104C20.4032 18.946 20.4811 19.5743 20.9168 19.9138C22.2486 20.9516 23.5151 21.3723 24.6422 21.2307C25.7815 21.0876 26.5948 20.3905 27.0127 19.5858C27.4545 18.7348 27.5289 17.7502 27.063 16.8665C26.6074 16.0027 25.7281 15.4091 24.6116 15.099C23.8237 14.8801 23.2996 14.6287 22.9924 14.373C22.7237 14.1494 22.6482 13.9534 22.6559 13.7206C22.6684 13.3434 23.1423 12.7188 23.9377 12.7188C24.2216 12.7188 24.5725 12.8284 24.9375 13.023C25.2949 13.2136 25.5832 13.4414 25.7187 13.5697C26.1196 13.9495 26.7525 13.9324 27.1324 13.5315C27.5122 13.1306 27.4951 12.4976 27.0942 12.1178C26.8338 11.8711 26.4003 11.5364 25.8785 11.2582C25.3643 10.9841 24.6787 10.7188 23.9377 10.7188Z" fill="white"/>
</svg>

<svg xmlns="http://www.w3.org/2000/svg" width="32" height="32" fill="none"><path fill="#F92F60" d="M2 6a4 4 0 0 1 4-4h20a4 4 0 0 1 4 4v20a4 4 0 0 1-4 4H6a4 4 0 0 1-4-4V6Z"/><path fill="#fff" d="M12.422 14.18a3.594 3.594 0 0 1 7.187 0v3.625a3.594 3.594 0 1 1-7.187 0V14.18Zm3.594-1.594c-.88 0-1.594.713-1.594 1.594v3.625a1.594 1.594 0 0 0 3.187 0V14.18c0-.88-.713-1.594-1.593-1.594ZM4.75 13.654c.052-1.559 1.514-2.935 3.281-2.935.741 0 1.427.265 1.941.54.522.277.955.612 1.216.859a1 1 0 0 1-1.376 1.452 3.875 3.875 0 0 0-.78-.547c-.366-.195-.717-.304-1-.304-.796 0-1.27.624-1.282 1.002-.008.232.067.428.336.652.307.256.831.507 1.62.726 1.116.31 1.995.904 2.45 1.767.467.884.392 1.869-.05 2.72a3.077 3.077 0 0 1-2.37 1.645c-1.127.141-2.394-.28-3.726-1.317a1 1 0 1 1 1.23-1.578c1.074.837 1.82.964 2.247.91.413-.052.694-.292.844-.582.191-.368.168-.652.056-.865-.122-.231-.45-.56-1.217-.773-.9-.25-1.739-.596-2.363-1.116-.663-.552-1.088-1.309-1.056-2.256ZM23.938 10.719c-1.767 0-3.23 1.376-3.281 2.935-.031.947.393 1.704 1.056 2.256.624.52 1.464.866 2.363 1.116.768.213 1.096.542 1.218.773.112.213.135.497-.056.865-.15.29-.431.53-.845.582-.426.054-1.172-.073-2.247-.91a1 1 0 1 0-1.23 1.578c1.333 1.038 2.6 1.458 3.726 1.317a3.077 3.077 0 0 0 2.37-1.645c.442-.851.517-1.836.051-2.72-.456-.863-1.335-1.457-2.451-1.767-.788-.219-1.312-.47-1.62-.726-.268-.224-.344-.42-.336-.652.012-.378.486-1.002 1.282-1.002.284 0 .635.11 1 .304.357.19.645.418.78.547a1 1 0 0 0 1.376-1.452 5.846 5.846 0 0 0-1.216-.86c-.514-.274-1.2-.54-1.94-.54Z"/></svg>
